assets/icons/tech.svg

<svg width="24" height="17" viewBox="0 0 24 17" fill="none" xmlns="http://www.w3.org/2000/svg">
    <path d="M23.4954 2.99204C23.4954 1.43748 22.2278 0.169922 20.6733 0.169922C19.1187 0.169922 17.8751 1.43748 17.8751 2.99204C17.8751 4.23569 18.7122 5.28801 19.8362 5.67067V8.18188L15.627 9.32986V16.146H17.325V10.6453L21.5343 9.49727V5.64675C22.6583 5.28801 23.4954 4.23569 23.4954 2.99204ZM20.6733 4.09219C20.0515 4.09219 19.5492 3.58995 19.5492 2.96813C19.5492 2.3463 20.0515 1.84406 20.6733 1.84406C21.2951 1.84406 21.7974 2.3463 21.7974 2.96813C21.7974 3.58995 21.2951 4.09219 20.6733 4.09219Z" fill="white"/>
    <path d="M4.43458 5.64723C5.55865 5.28848 6.39572 4.23617 6.39572 2.96861C6.39572 1.41405 5.12815 0.146484 3.5736 0.146484C2.01904 0.146484 0.775391 1.43796 0.775391 2.99252C0.775391 4.23617 1.61246 5.28848 2.73653 5.67115V9.47383L6.94579 10.6218V16.1226H8.64385V9.30642L4.43458 8.15844V5.64723ZM3.59751 1.86846C4.21934 1.86846 4.72158 2.3707 4.72158 2.99252C4.72158 3.61434 4.21934 4.11659 3.59751 4.11659C2.97569 4.11659 2.47345 3.59043 2.47345 2.99252C2.47345 2.39461 2.97569 1.86846 3.59751 1.86846Z" fill="white"/>
    <path d="M12.1366 0.169922C10.582 0.169922 9.31445 1.43748 9.31445 2.99204C9.31445 4.23569 10.1515 5.28801 11.2756 5.67067V16.1221H12.9736V5.64675C14.0977 5.28801 14.9348 4.23569 14.9348 2.96813C14.9587 1.43748 13.6911 0.169922 12.1366 0.169922ZM12.1366 4.09219C11.5147 4.09219 11.0125 3.58995 11.0125 2.96813C11.0125 2.3463 11.5147 1.84406 12.1366 1.84406C12.7584 1.84406 13.2606 2.3463 13.2606 2.96813C13.2606 3.58995 12.7584 4.09219 12.1366 4.09219Z" fill="white"/>
</svg>

<svg width="24" height="17" fill="none" xmlns="http://www.w3.org/2000/svg"><path d="M23.495 2.992A2.827 2.827 0 0 0 20.673.17c-1.554 0-2.798 1.267-2.798 2.822 0 1.244.837 2.296 1.961 2.679v2.51L15.627 9.33v6.816h1.698v-5.5l4.21-1.149v-3.85c1.123-.359 1.96-1.411 1.96-2.655Zm-2.822 1.1a1.123 1.123 0 0 1-1.124-1.124 1.123 1.123 0 1 1 2.248 0c0 .622-.502 1.124-1.124 1.124ZM4.435 5.647a2.815 2.815 0 0 0 1.96-2.678A2.827 2.827 0 0 0 3.575.146C2.019.146.775 1.438.775 2.993c0 1.243.837 2.295 1.962 2.678v3.803l4.209 1.148v5.5h1.698V9.307l-4.21-1.148v-2.51Zm-.837-3.779c.621 0 1.124.503 1.124 1.125 0 .621-.503 1.124-1.124 1.124a1.138 1.138 0 0 1-1.125-1.124c0-.598.503-1.125 1.125-1.125ZM12.137.17a2.827 2.827 0 0 0-2.823 2.822c0 1.244.838 2.296 1.962 2.679v10.451h1.698V5.647a2.815 2.815 0 0 0 1.96-2.679C14.96 1.438 13.692.17 12.138.17Zm0 3.922a1.123 1.123 0 0 1-1.125-1.124c0-.622.503-1.124 1.125-1.124.621 0 1.124.502 1.124 1.124 0 .622-.503 1.124-1.124 1.124Z" fill="#fff"/></svg>
